X:1
T:OPUS- 35
T:24 ESTUDIOS
T:Studio op. 35 n. 16  Segovia n. 15
T:Fernando Sor
T:Revisione P.Romanello
C:FERNANDO SOR
%%score ( 1 2 )
L:1/8
M:3/4
K:F
V:1 treble-8 
V:2 treble-8 
V:1
"^Moderato"{g} [df]z/[^ce]/ [df] z [fa] z | ([eg]z/[^d^f]/) [eg] z [^ce] z | %2
 ([d=f]z/[^ce]/) [df] z [dg]2 | [^ca]2 z2 z2 | [df]z/[^ce]/ [df] z [fa] z | %5
 [eg]z/[^d^f]/ [eg] z [gb] z | [=fa]z/[eg]/ [=df] z [G^ce]2 | [G^ce]2 d2 z2 | %8
 [Af]>[Ge] [Af] z [Bg] z | [Gf]2 e3/2 [Fd]/ [Ec] z | [Gc]>e [Bg] z [Bg] z | [Bg]4 [Af]2 | %12
 [df]z/[^ce]/ [df] z [Bd] z | [A=c]z/[FA]/ [Ac] z [A^c] z | [Bd]z/[^ce]/ [df] z [Bd] z | %15
 [A=c] z F2 z2 | [Af]z/[Ge]/ [Af] z [Af] z | [dg]4 [df] z | [Ge]z/[Af]/ [_Bg] z [Ge] z | %19
 [Af] z x z z2 | [Af] z z2"^II" [A_e^f] z | !2!!3!!4![Bdg] z"^III\n" [Bdb] z z2 | %22
 [Af]3/2z[Bg]/ x z [Bg] | [Af] z x z z2 | [fa]3/2 [e^g]/ [fa] z [df=b]2 | [ec'] z =g z [c_ea]2 | %26
 [db] z f z [Bdg]2 | [^ca] z e z [A=c^f]2 | [=Bg] z d z [_Be]2 | [Af] z c z [Af]2 | f>e e2 d2 | %31
 [A^c]2 z2 z2 | [Fd]>[E^c] [Fd] z [Af] z | [Ge]>[^F^d] [Ge] z [E^c] z | %34
 [=F=d]>[Ge] [A=f] z [Fd] z | [E^c] z [Aa]2 z2 | [Af]>[Ge] [Af]2 [Bg]>[Af] | %37
 [Ge]>[^F^d] [Ge]2 [A=f]>[Ge] | [=F=d]>[E^c] [Fd]2 [Ge]>[^Gd] | [A^c] z e4 | =b>^c' b z b z | %41
 a z e4 | =b>^c' b z b z | [A^ca]2 [=B^g]2 [c=g]2 | [df] z/ [^ce]/ [df] z [fa] z | %45
 ([eg]z/[^d^f]/) [eg] z [^ce] z | ([d=f]z/[^ce]/) [df] z [dg]2 | [^ca]4 z2 | %48
 [=ca]>[=B^g] [ca]2 [ca]2 | [ca]2 [B=g]4 | [_Bg]>[A^f] [Bg]2 [Bg]2 | [Bg]2 [A=f]4 | e>f g2 e2 | %53
 [Fd]>[Ge] [Af]2 [Fd]2 | [E^c]>[Fd] [Ge]2 [Ec]2 | [Fd]4 z2 | [Ge]>[^F^d] [Ge]2 [Ge]2 | [F=d]6 | %58
 [Ge]>[^F^d] [Ge]2 [Ge]2 | [F=d]6 | [Fd]6 | d6 |] %62
V:2
 D2 z2 z2 |{a} A,2 z2 z2 |{g} =D2 z2 B,2 | A,2 A2 A,2 | D2 z2 z2 |{a} G2 z2 !open!G z | A2 z2 A,2 | %7
 D2 F2 z2 |{g} D2 x2 G, z | C2 z2 x2 | E4 E z | F2 F,4 | F,4 F, z | F,2 x2 F, z | F,2 z2 F, z | %15
 F, z x2 E2 |{g} D2 x2 D z | B,3/2 A,/ B, z =B, z | C2 x2 C z | F3/2 E/ F x E x | %20
 D3/2 ^C/ D z =C z | !1!B, z G, z z2 | C x2 [ca] x C | F, z F x F, x | z2 z2 =G2 | c z z2 F2 | %26
 B z z2 =E2 | A z z2 D2 | G z z2 =C2 | F z x4 | [G,B]4 [^G,=B]2 | A,2 A,2 A,2 | A,2 x2 A, z | %33
 A,2 z2 A, z | A,2 z2 A, z | A, z z2 A, z |{g} A,2 x2 A,2 |{f} A,2 z2 A,2 | A,2 x2 A,2 | %39
 A,2 z2 A,2 | [A,^Gd]2 z2 [A,Gd] z | [A,A^c] z z2 [A,Ac] z | [A,^Gd]2 z2 [A,Gd] z | A,6 | %44
{g} D2 z2 z2 |{a} A,2 z2 x2 |{g} =D2 z2 B,2 | A,2 A2 G2 | F2 x2 D2 | =G,2 =G2 F2 | E2 z2 C2 | %51
 =F,2 =F2 F,2 | [G,B]4 [G,B]2 | A,4 A,2 | A,4 A,2 | D3/2 ^C/ D2 A,2 | ^C4 A,2 | D ^C/ D2 A,2 x/ | %58
 ^C4 A,2 | D ^C/ D2 A,2 x/ | D3/2 ^C/ D2 A,2 | [DF]6 |] %62

